X: 10561
T: MACPHERSON'S LAMENT
Q: "Slow with expression."
%R: air, lament, march
B: W. Hamilton "Universal Tune-Book" Vol. 1 Glasgow 1844 p.56 #1
S: http://imslp.org/wiki/Hamilton's_Universal_Tune-Book_(Various)
Z: 2016 John Chambers <jc:trillian.mit.edu>
M: C|
L: 1/8
K: F
%%slurgraces yes
%%graceslurs yes
% - - - - - - - - - - - - - - - - - - - - - - - - -
CD/E/ |\
F3G F2A2 | GFGA {A}G2FE | F3G AGFE | {E}D4 D2 CD/E/ |\
F3G F2A2 | {A}G>FGA {A}G2FE | F2ED GEFD | C4 C2 :|
|: d2 |\
c2F2 c2d2 | c3A GABd | c2F2 c2d2 | D4 D2 d2 |\
c2F2 c3A | c3A GBAG | F2ED GEFD | C4 C2 :|
|: cd/e/ |\
f3g f2a2 | gfga g2fe | f3g agfe | {e}d4 d2 c/d/e |\
f3g f2a2 | gfga g2fe | f2ed gefd | c4 c2 :|
|: a>g |\
f2F2 BAGF | c2F2 F2a>g | f2F2 c2d2 | D4 D2 a>g |\
f>FF2 A>FF2 | c3A G2A2 | F2EF GFED | C4 C2 :|
% - - - - - - - - - - - - - - - - - - - - - - - - -

%%sep 1 1 500
%%sep 1 1 500

